resources/images/teacher-training.svg

<?xml version="1.0" encoding="UTF-8"?>
<svg width="24px" height="19px" viewBox="0 0 24 19" version="1.1" xmlns="http://www.w3.org/2000/svg" xmlns:xlink="http://www.w3.org/1999/xlink">
    <!-- Generator: sketchtool 63.1 (101010) - https://sketch.com -->
    <title>2C0D112B-2BA7-4BA0-A0F1-E7977BDC03C7</title>
    <desc>Created with sketchtool.</desc>
    <g id="desktop" stroke="none" stroke-width="1" fill="none" fill-rule="evenodd">
        <g id="homepage" transform="translate(-122.000000, -357.000000)" fill="#B4C8F4" fill-rule="nonzero">
            <g id="Icons-/-dropdown-/-teacher-training" transform="translate(122.000000, 357.000000)">
                <g id="Group">
                    <path d="M22.2554233,2.30700837 L12.4957953,0.054747907 C12.332294,0.018 12.1657953,0 12.0000558,0 C11.8343051,0 11.6677953,0.018 11.4937953,0.057 L1.74449302,2.307 C0.716986047,2.544 0,3.44549302 0,4.49998605 C0,5.55447907 0.717739535,6.45598605 1.74373953,6.69297209 L3.75,7.15572558 L3.75,14.5910068 C3.75,16.5814998 6.02849302,18.3411463 11.9998605,18.3411463 C17.9713953,18.3411463 20.2497209,16.5816393 20.2497209,14.5910068 L20.2497209,7.15572558 L22.2552279,6.69297209 C23.2819814,6.45597209 23.9999163,5.55447907 23.9999163,4.49998605 C23.9999163,3.4455014 23.2821767,2.54399442 22.2554233,2.30700837 Z M18.3054545,14.5699541 C18.3054545,15.3320568 16.2364064,16.6390023 12.0981818,16.6390023 C7.96008554,16.6390023 5.89090909,15.3320568 5.89090909,14.5699541 L5.89090909,7.96363636 L11.6413873,9.29059873 C11.7917394,9.32439639 11.9455406,9.34094878 12.0979509,9.34094878 C12.2503714,9.34094878 12.4041571,9.32426808 12.5628034,9.28854573 L18.3050696,7.96363636 L18.3050696,15.6606066 L18.3054545,14.5699541 Z M12.2410576,7.27582613 C12.1880225,7.28714042 12.1349874,7.293508 12.0819497,7.293508 C12.0289147,7.293508 11.9751718,7.28714042 11.9228419,7.27582613 L2.72985075,5.154397 C2.40881439,5.08014632 2.18181818,4.79447105 2.18181818,4.46493582 C2.18181818,4.13540058 2.40881176,3.84972795 2.72985075,3.77547464 L11.9228419,1.6540455 C11.9751692,1.64273121 12.0282069,1.63636364 12.0819497,1.63636364 C12.1356926,1.63636364 12.1887277,1.64273121 12.2410576,1.6540455 L21.4337856,3.77547464 C21.7541115,3.84972795 21.9818182,4.13540058 21.9818182,4.46493582 C21.9818182,4.79447105 21.7541168,5.08014369 21.4337856,5.154397 L12.2410576,7.27582613 Z" id="Shape"></path>
                </g>
            </g>
        </g>
    </g>
</svg>

<svg width="24" height="19" xmlns="http://www.w3.org/2000/svg"><path d="M22.255 2.307L12.495.055a2.262 2.262 0 00-1.001.002l-9.75 2.25A2.24 2.24 0 000 4.5a2.24 2.24 0 001.744 2.193l2.006.463v7.435c0 1.99 2.278 3.75 8.25 3.75 5.971 0 8.25-1.76 8.25-3.75V7.156l2.005-.463A2.24 2.24 0 0024 4.5a2.24 2.24 0 00-1.745-2.193zm-3.95 12.263c0 .762-2.069 2.069-6.207 2.069s-6.207-1.307-6.207-2.069V7.964l5.75 1.327a2.086 2.086 0 00.922-.002l5.742-1.325v7.697-1.091zm-6.064-7.294a.762.762 0 01-.318 0L2.73 5.154a.707.707 0 010-1.379l9.193-2.121a.751.751 0 01.318 0l9.193 2.121a.708.708 0 010 1.38l-9.193 2.12z" fill="#B4C8F4" fill-rule="nonzero"/></svg>
